Newaita/actions/22/color-picker.svg

<svg height="22" viewBox="0 0 22 22" width="22" xmlns="http://www.w3.org/2000/svg"><path d="m10.898438 2.90625c-.296876.003906-.570313.15625-.738282.402344-.902344 1.355468-2.164062 3.1875-3.210937 4.992187-1.050781 1.804688-1.941407 3.5-1.941407 5.058594h-.003906c0 3.277344 2.636719 5.914063 5.910156 5.914063 3.277344 0 5.914063-2.636719 5.914063-5.914063h-.003906c0-1.558594-.894531-3.253906-1.941407-5.058594-1.050781-1.804687-2.3125-3.636719-3.214843-4.992187-.171875-.257813-.460938-.410156-.769531-.402344zm.015624 2.535156c.789063 1.175782 1.648438 2.46875 2.402344 3.769532.996094 1.71875 1.695313 3.433593 1.695313 4.148437h-.003907c0 2.269531-1.824218 4.09375-4.09375 4.09375-2.265624 0-4.09375-1.824219-4.09375-4.09375h-.003906c0-.714844.699219-2.429687 1.699219-4.148437.753906-1.300782 1.613281-2.59375 2.398437-3.769532zm0 0" fill="#424242"/></svg>

<svg xmlns="http://www.w3.org/2000/svg" xmlns:xlink="http://www.w3.org/1999/xlink" width="22px" height="22px" viewBox="0 0 22 22" version="1.1">
<g id="surface1">
     <defs>
  <style id="current-color-scheme" type="text/css">
   .ColorScheme-Text { color:#424242; } .ColorScheme-Highlight { color:#eeeeee; }
  </style>
 </defs>
<path style="fill:currentColor" class="ColorScheme-Text" d="M 10.898438 2.90625 C 10.601562 2.910156 10.328125 3.0625 10.160156 3.308594 C 9.257812 4.664062 7.996094 6.496094 6.949219 8.300781 C 5.898438 10.105469 5.007812 11.800781 5.007812 13.359375 L 5.003906 13.359375 C 5.003906 16.636719 7.640625 19.273438 10.914062 19.273438 C 14.191406 19.273438 16.828125 16.636719 16.828125 13.359375 L 16.824219 13.359375 C 16.824219 11.800781 15.929688 10.105469 14.882812 8.300781 C 13.832031 6.496094 12.570312 4.664062 11.667969 3.308594 C 11.496094 3.050781 11.207031 2.898438 10.898438 2.90625 Z M 10.914062 5.441406 C 11.703125 6.617188 12.5625 7.910156 13.316406 9.210938 C 14.3125 10.929688 15.011719 12.644531 15.011719 13.359375 L 15.007812 13.359375 C 15.007812 15.628906 13.183594 17.453125 10.914062 17.453125 C 8.648438 17.453125 6.820312 15.628906 6.820312 13.359375 L 6.816406 13.359375 C 6.816406 12.644531 7.515625 10.929688 8.515625 9.210938 C 9.269531 7.910156 10.128906 6.617188 10.914062 5.441406 Z M 10.914062 5.441406 "/>
</g>
</svg>
